icons/volume-vibrate-fill.svg

<svg xmlns="http://www.w3.org/2000/svg" width="24" height="24" fill="none"><g clip-path="url(#a)"><g><path fill="#121212" d="M19.39 3.161L20.803 4.575L18.328 7.05L20.803 9.52499L18.328 12L20.803 14.476L18.328 16.951L20.803 19.426L19.389 20.84L15.5 16.95L17.975 14.476L15.5 12L17.975 9.52499L15.5 7.05L19.39 3.161ZM12.887 3.739C12.9599 3.82816 12.9999 3.93979 13 4.055V19.945C13.0001 20.0397 12.9732 20.1325 12.9226 20.2126C12.872 20.2926 12.7996 20.3566 12.714 20.3972C12.6284 20.4377 12.5331 20.4531 12.4391 20.4416C12.3451 20.4301 12.2563 20.392 12.183 20.332L6.89 15.999L3 16C2.73478 16 2.48043 15.8946 2.29289 15.7071C2.10536 15.5196 2 15.2652 2 15V9C2 8.73478 2.10536 8.48042 2.29289 8.29289C2.48043 8.10535 2.73478 8 3 8H6.889L12.183 3.668C12.2338 3.62633 12.2923 3.5951 12.3552 3.57606C12.4181 3.55703 12.4841 3.55058 12.5495 3.55709C12.6149 3.56359 12.6783 3.58291 12.7363 3.61395C12.7942 3.64499 12.8454 3.68714 12.887 3.738V3.739Z"/></g></g><defs><clipPath id="a"><rect width="24" height="24" fill="white"/></clipPath></defs></svg>

<svg width="24" height="24" fill="none" xmlns="http://www.w3.org/2000/svg"><g clip-path="url(#a)"><path d="m19.39 3.161 1.413 1.414-2.475 2.475 2.475 2.475L18.328 12l2.475 2.476-2.475 2.475 2.475 2.475-1.414 1.414-3.889-3.89 2.475-2.474L15.5 12l2.475-2.475L15.5 7.05l3.89-3.889Zm-6.503.578a.5.5 0 0 1 .113.316v15.89a.5.5 0 0 1-.817.387L6.89 15.999 3 16a1 1 0 0 1-1-1V9a1 1 0 0 1 1-1h3.889l5.294-4.332a.5.5 0 0 1 .704.07v.001Z" /></g><defs><clipPath id="a"><path fill="#fff" d="M0 0h24v24H0z"/></clipPath></defs></svg>
